X:1
T:The Gals of Chile
M:4/4
L:1/4
K:D
A,/2-A,/2| D E F E/2D/2| F G A B/2A/2| A- G B, B/2A/2| A2 D|A,/2-A,/2|\
 D E F E/2D/2| F G A B/2c/2| d3/2 B/2 A B| B A2| A/2A/2| B A d c/2c/2|\
 B A d c/2c/2| B/2B/2 A/2A/2F/2-E/2 D/2E/2| F D B,| A,/2A,/2| D D F3/2 D/2|\
 E E2 d/2B/2| A ^G/2A/2 B A| D3||
